icons/1_Primary/XGo.svg

<svg width="1024" height="1024" fill="none" xmlns="http://www.w3.org/2000/svg"><g clip-path="url(#a)"><path d="M512 1024c282.77 0 512-229.23 512-512S794.77 0 512 0 0 229.23 0 512s229.23 512 512 512Z" fill="#56595B"/><path d="M662.09 498.3c-68.36 0-123.84 56.08-123.84 125.19s55.48 125.19 123.84 125.19c68.36 0 123.84-56.08 123.84-125.19S730.45 498.3 662.09 498.3Zm0 145.82a20.631 20.631 0 0 1-4.326-40.846 20.627 20.627 0 0 1 21.243 8.732 20.63 20.63 0 0 1 3.493 11.484 20.49 20.49 0 0 1-20.41 20.63ZM526 628.89H424a20.483 20.483 0 0 1-19.62 15.22c-9.51 0-20.21-9.21-20.21-20.43a20.408 20.408 0 0 1 20.21-20.43c11.1 0 17.24 6.41 19.42 15h101.77a2.418 2.418 0 0 0 2.38-2.4c-4.16-70.71-66.18-125.39-138.7-116.58-56.07 6.81-101.45 53.08-107.79 109.77-6.74 61.29 28.93 118.58 81.44 131.6 32.3 8.81 65.59 3.41 83.62-11a1.256 1.256 0 0 1 1.309-.118 1.251 1.251 0 0 1 .691 1.118v16a2.209 2.209 0 0 0 2.18 2.2h75.1a2.214 2.214 0 0 0 2.18-2.2V631.5a2.208 2.208 0 0 0-2.18-2.2l.2-.4v-.01Zm-.67-321.11-69.35-70.31a2.391 2.391 0 0 0-3.17 0l-50.53 51.08-50.53-51.08a2.391 2.391 0 0 0-3.17 0L279 307.78a2.45 2.45 0 0 0 0 3.2l50.53 51.08L279 413.14a2.45 2.45 0 0 0 0 3.2l69.55 70.31a2.387 2.387 0 0 0 3.17 0l50.53-51.08 50.53 51.08a2.387 2.387 0 0 0 3.17 0l69.55-70.31a2.445 2.445 0 0 0 0-3.2L475 362.06 525.5 311a2.445 2.445 0 0 0 0-3.2h-.2l.03-.02Z" fill="#fff"/></g><defs><clipPath id="a"><path fill="#fff" d="M0 0h1024v1024H0z"/></clipPath></defs></svg>

<svg width="1024" height="1024" viewBox="0 0 1024 1024" fill="none" xmlns="http://www.w3.org/2000/svg">
<g clip-path="url(#clip0_2_3981)">
<path d="M512 1024C794.77 1024 1024 794.77 1024 512C1024 229.23 794.77 0 512 0C229.23 0 0 229.23 0 512C0 794.77 229.23 1024 512 1024Z" fill="#56595B"/>
<path d="M662.09 498.3C593.73 498.3 538.25 554.38 538.25 623.49C538.25 692.6 593.73 748.68 662.09 748.68C730.45 748.68 785.93 692.6 785.93 623.49C785.93 554.38 730.45 498.3 662.09 498.3ZM662.09 644.12C658.001 644.164 653.991 642.991 650.569 640.751C647.148 638.511 644.469 635.304 642.874 631.539C641.279 627.773 640.839 623.618 641.61 619.602C642.381 615.586 644.328 611.889 647.204 608.982C650.081 606.075 653.756 604.088 657.764 603.274C661.771 602.46 665.931 602.856 669.713 604.411C673.496 605.965 676.731 608.609 679.007 612.006C681.284 615.404 682.5 619.401 682.5 623.49C682.518 626.186 682.005 628.859 680.988 631.356C679.972 633.853 678.473 636.125 676.577 638.041C674.681 639.958 672.425 641.481 669.939 642.524C667.453 643.567 664.786 644.11 662.09 644.12ZM526 628.89H424C422.848 633.226 420.304 637.063 416.76 639.813C413.215 642.563 408.866 644.072 404.38 644.11C394.87 644.11 384.17 634.9 384.17 623.68C384.164 618.298 386.285 613.132 390.07 609.306C393.855 605.479 398.998 603.303 404.38 603.25C415.48 603.25 421.62 609.66 423.8 618.25H525.57C526.201 618.24 526.804 617.983 527.248 617.535C527.693 617.086 527.945 616.482 527.95 615.85C523.79 545.14 461.77 490.46 389.25 499.27C333.18 506.08 287.8 552.35 281.46 609.04C274.72 670.33 310.39 727.62 362.9 740.64C395.2 749.45 428.49 744.05 446.52 729.64C446.706 729.501 446.927 729.416 447.158 729.395C447.389 729.375 447.621 729.418 447.829 729.522C448.037 729.626 448.211 729.786 448.333 729.983C448.455 730.181 448.52 730.408 448.52 730.64V746.64C448.523 747.22 448.752 747.775 449.16 748.186C449.568 748.597 450.121 748.832 450.7 748.84H525.8C526.379 748.832 526.932 748.597 527.34 748.186C527.748 747.775 527.977 747.22 527.98 746.64V631.5C527.977 630.921 527.748 630.366 527.34 629.955C526.932 629.543 526.379 629.308 525.8 629.3L526 628.9V628.89ZM525.33 307.78L455.98 237.47C455.543 237.083 454.979 236.869 454.395 236.869C453.811 236.869 453.247 237.083 452.81 237.47L402.28 288.55L351.75 237.47C351.313 237.083 350.749 236.869 350.165 236.869C349.581 236.869 349.017 237.083 348.58 237.47L279 307.78C278.616 308.225 278.405 308.793 278.405 309.38C278.405 309.968 278.616 310.536 279 310.98L329.53 362.06L279 413.14C278.616 413.585 278.405 414.153 278.405 414.74C278.405 415.328 278.616 415.896 279 416.34L348.55 486.65C348.987 487.038 349.551 487.252 350.135 487.252C350.719 487.252 351.283 487.038 351.72 486.65L402.25 435.57L452.78 486.65C453.217 487.038 453.781 487.252 454.365 487.252C454.949 487.252 455.513 487.038 455.95 486.65L525.5 416.34C525.884 415.896 526.095 415.328 526.095 414.74C526.095 414.153 525.884 413.585 525.5 413.14L475 362.06L525.5 311C525.884 310.556 526.095 309.988 526.095 309.4C526.095 308.813 525.884 308.245 525.5 307.8H525.3L525.33 307.78Z" fill="white"/>
</g>
<defs>
<clipPath id="clip0_2_3981">
<rect width="1024" height="1024" fill="white"/>
</clipPath>
</defs>
</svg>
